X:51
T:Pols fr R\o{}ros (2)
R:Pols
O:Norway
M:3/4
I:speed 320
K:DDor
d2 d<^c A2|f2 fd e>f|\
(3geg (3fdf e>^c|d2 {e}d<^c A2|\
d2 d<^c A2|f2 fd e>f|\
(3geg (3fdf e>^c|^cd d4:|
|:\
K:D
a2 fa fa|g2 eg eg|f2 (3dfd e>c|cd {e}d<c A2|\
a2 fa fa|g2 eg eg|f2 (3dfd e>c|c<d d4:|
